X:1
T:Village Quickstep
B:CCDB
B:based on Company of Fifers and Drummers, Vol 1
M:6/8
L:1/8
Q:1/8=300
K:D
|: (3A/B/c/|d2dd2d|d2dd2e|fed edc|d2z z2d|
e2ee2e|e2ee2f|edc dcB|A2z z2 :|
|: F/G/|A2zB2A|A/d/zz z2F/G/|A2zB2A|A/e/zz z2F/G/|A2zB2A|f2fd2d|efe cBc|d2z z2 :|
|: z|A6-|A2A ABA|F6-|F2F FGA|B6-|B2B dcB|A6-|A2A AGF|
E6-|E2zA2 B/c/|d2z A2 B/c/|d2zA2 B/c/|d2cd2c|d2z z2 :|
